app-template/mira/img/lock-blue.svg

<?xml version="1.0" encoding="UTF-8" standalone="no"?>
<!-- Generator: Adobe Illustrator 21.0.0, SVG Export Plug-In . SVG Version: 6.00 Build 0)  -->

<svg
   xmlns:dc="http://purl.org/dc/elements/1.1/"
   xmlns:cc="http://creativecommons.org/ns#"
   xmlns:rdf="http://www.w3.org/1999/02/22-rdf-syntax-ns#"
   xmlns:svg="http://www.w3.org/2000/svg"
   xmlns="http://www.w3.org/2000/svg"
   xmlns:sodipodi="http://sodipodi.sourceforge.net/DTD/sodipodi-0.dtd"
   xmlns:inkscape="http://www.inkscape.org/namespaces/inkscape"
   version="1.1"
   id="Слой_1"
   x="0px"
   y="0px"
   viewBox="0 0 208.89999 240.89999"
   enable-background="new 0 0 500 500"
   xml:space="preserve"
   inkscape:version="0.91 r13725"
   sodipodi:docname="lock-blue.svg"
   width="208.89999"
   height="240.89999"><metadata
     id="metadata3391"><rdf:RDF><cc:Work
         rdf:about=""><dc:format>image/svg+xml</dc:format><dc:type
           rdf:resource="http://purl.org/dc/dcmitype/StillImage" /><dc:title></dc:title></cc:Work></rdf:RDF></metadata><defs
     id="defs3389" /><sodipodi:namedview
     pagecolor="#ffffff"
     bordercolor="#666666"
     borderopacity="1"
     objecttolerance="10"
     gridtolerance="10"
     guidetolerance="10"
     inkscape:pageopacity="0"
     inkscape:pageshadow="2"
     inkscape:window-width="1393"
     inkscape:window-height="824"
     id="namedview3387"
     showgrid="false"
     fit-margin-top="0"
     fit-margin-left="0"
     fit-margin-right="0"
     fit-margin-bottom="0"
     inkscape:zoom="1.7"
     inkscape:cx="-40.2"
     inkscape:cy="116.21594"
     inkscape:window-x="284"
     inkscape:window-y="117"
     inkscape:window-maximized="0"
     inkscape:current-layer="Слой_1" /><g
     id="g3379"
     transform="translate(-145.1,-130.2)"><g
       id="g3381"><path
         d="m 331.5,231.8 -130.8,0 0,-39 c 0,-26.4 22.3,-48.7 48.7,-48.7 26.4,0 48.7,22.3 48.7,48.7 0,4.2 2.8,7 7,7 4.2,0 7,-2.8 7,-7 0,-34.8 -27.8,-62.6 -62.6,-62.6 -34.8,0 -62.6,27.8 -62.6,62.6 l 0,39 -19.5,0 c -12.5,0 -22.3,9.7 -22.3,22.3 l 0,94.7 c 0,12.5 9.7,22.3 22.3,22.3 l 164.3,0 c 12.5,0 22.3,-9.7 22.3,-22.3 l 0,-94.8 c -0.2,-12.5 -9.9,-22.2 -22.5,-22.2 l 0,0 z m 8.4,116.9 c 0,4.2 -4.2,8.4 -8.4,8.4 l -164.2,0 c -4.2,0 -8.4,-4.2 -8.4,-8.4 l 0,-94.7 c 0,-4.2 4.2,-8.4 8.4,-8.4 l 164.3,0 c 4.2,0 8.4,4.2 8.4,8.4 l 0,94.7 z m 0,0"
         id="path3383"
         inkscape:connector-curvature="0"
         style="fill:#344e9d" /></g><path
       d="m 256.4,305 0,-20.4 c 0,-4.2 -2.8,-7 -7,-7 -4.2,0 -7,2.8 -7,7 l 0,20.4 c -0.9,0.6 -1.9,1.1 -2.8,1.9 -2.8,2.8 -4.2,5.6 -4.2,9.7 0,4.2 1.4,7 4.2,9.7 2.8,2.8 5.6,4.2 9.7,4.2 4.1,0 7,-1.4 9.7,-4.2 2.8,-2.8 4.2,-5.6 4.2,-9.7 0,-4.2 -1.4,-7 -4.2,-9.7 -0.7,-0.8 -1.7,-1.3 -2.6,-1.9 l 0,0 z m 0,0"
       id="path3385"
       inkscape:connector-curvature="0"
       style="fill:#344e9d" /></g></svg>

<?xml version="1.0" encoding="utf-8"?>
<!-- Generator: Adobe Illustrator 21.0.0, SVG Export Plug-In . SVG Version: 6.00 Build 0)  -->
<svg version="1.1" id="Слой_1" xmlns="http://www.w3.org/2000/svg" xmlns:xlink="http://www.w3.org/1999/xlink" x="0px" y="0px"
	 viewBox="0 0 500 500" enable-background="new 0 0 500 500" xml:space="preserve">
<g>
	<g>
		<path fill="#344E9D" d="M331.5,231.8H200.7v-39c0-26.4,22.3-48.7,48.7-48.7s48.7,22.3,48.7,48.7c0,4.2,2.8,7,7,7c4.2,0,7-2.8,7-7
			c0-34.8-27.8-62.6-62.6-62.6c-34.8,0-62.6,27.8-62.6,62.6v39h-19.5c-12.5,0-22.3,9.7-22.3,22.3v94.7c0,12.5,9.7,22.3,22.3,22.3
			h164.3c12.5,0,22.3-9.7,22.3-22.3V254C353.8,241.5,344.1,231.8,331.5,231.8L331.5,231.8z M339.9,348.7c0,4.2-4.2,8.4-8.4,8.4
			H167.3c-4.2,0-8.4-4.2-8.4-8.4V254c0-4.2,4.2-8.4,8.4-8.4h164.3c4.2,0,8.4,4.2,8.4,8.4V348.7z M339.9,348.7"/>
	</g>
	<path fill="#344E9D" d="M256.4,305v-20.4c0-4.2-2.8-7-7-7c-4.2,0-7,2.8-7,7V305c-0.9,0.6-1.9,1.1-2.8,1.9c-2.8,2.8-4.2,5.6-4.2,9.7
		c0,4.2,1.4,7,4.2,9.7c2.8,2.8,5.6,4.2,9.7,4.2s7-1.4,9.7-4.2c2.8-2.8,4.2-5.6,4.2-9.7c0-4.2-1.4-7-4.2-9.7
		C258.3,306.1,257.3,305.6,256.4,305L256.4,305z M256.4,305"/>
</g>
</svg>
